core/assets/icons/esim.svg

<svg width="24" height="24" viewBox="0 0 24 24" xmlns="http://www.w3.org/2000/svg"><g id="esim"><path id="Vector" d="M6.6 17.4H17.4V6.6H6.6V17.4ZM13.8 19.2H10.2V21H8.4V19.2H5.7C5.46131 19.2 5.23239 19.1052 5.0636 18.9364C4.89482 18.7676 4.8 18.5387 4.8 18.3V15.6H3V13.8H4.8V10.2H3V8.4H4.8V5.7C4.8 5.46131 4.89482 5.23239 5.0636 5.0636C5.23239 4.89482 5.46131 4.8 5.7 4.8H8.4V3H10.2V4.8H13.8V3H15.6V4.8H18.3C18.5387 4.8 18.7676 4.89482 18.9364 5.0636C19.1052 5.23239 19.2 5.46131 19.2 5.7V8.4H21V10.2H19.2V13.8H21V15.6H19.2V18.3C19.2 18.5387 19.1052 18.7676 18.9364 18.9364C18.7676 19.1052 18.5387 19.2 18.3 19.2H15.6V21H13.8V19.2ZM8.4 8.4H15.6V15.6H8.4V8.4Z"/></g></svg>

<svg xmlns="http://www.w3.org/2000/svg" width="24" height="24" fill="none"><path fill="#191C22" d="M6.6 17.4h10.8V6.6H6.6v10.8Zm7.2 1.8h-3.6V21H8.4v-1.8H5.7a.9.9 0 0 1-.9-.9v-2.7H3v-1.8h1.8v-3.6H3V8.4h1.8V5.7a.9.9 0 0 1 .9-.9h2.7V3h1.8v1.8h3.6V3h1.8v1.8h2.7a.9.9 0 0 1 .9.9v2.7H21v1.8h-1.8v3.6H21v1.8h-1.8v2.7a.9.9 0 0 1-.9.9h-2.7V21h-1.8v-1.8ZM8.4 8.4h7.2v7.2H8.4V8.4Z"/></svg>
